X:4998
T:Fandangu (CT 132)
R:Fandangu
C:Tradicional
S:Msica Tradicional Asturiana, (C) Tello & Tito. Asturies, 2001.
S:http://pagina.de/MusTradAst <telloytito@asturies.org>
N:Baille de gaita (Fandangu), transcritu en Xixn.
N:Los ritmos de tambor y castauelas son los mismos que en CT 131.
O:Xixn
A:Asturies
Z:Cancioneru de Torner 132
M:3/8
L:1/8
Q:3/8=80
K:G
d3
|: BB/B/B|cde|B/c/B/A/B|cde|A/B/A/G/A|Ad/e/d/B/|G3|
BB/A/B|Bc/B/A/G/|A/B/A/G/A|AcA|BB/A/B|Bcd|BB/A/B|Bcd|AA/G/A|Ad/e/d/B/|G3|
|dd/B/d|d g/g/f/g/|dd/B/d|dg/g/f/g/|ee/c/e|eg/g/f/g/|dd/B/d|dg/g/f/g/|
d/e/d/B/d|dg/g/f/g/|e/f/e/c/e|eg/g/f/g/|d/e/d/B/G|
Gc/c/c/d/|AA/G/A|Acd|BB/A/B|Bcd|
BB/A/B|Bcd|AA/G/A|Ad/e/d/B/|[1 G3 :|[2 G d2-|d3||
